X:1
T:Darlington, 10.11.10.11
T:Anonymous
T:Darlington, 10.11.10.11
T:Public Domain
C:Anonymous
Z:Public Domain
%%score ( 1 2 ) ( 3 4 )
L:1/8
M:4/4
K:D
V:1 treble 
V:2 treble 
V:3 bass 
V:4 bass 
V:1
 [A,D]4 | [A,D]4 [A,C]2 [A,D]2 | [CE]4 ([CE]2 [CE]2) | [CE]4 D2 [CE]2 | [DF]4 [DF]4 | %5
 [Fe]4 [Fc]2 [FB]2 | [FB]4 F2 [F^G]2 | [FA]4 [FA]2 [^E^G]2 | F4 [^DF]4 | [FA]4 [EG]2 [^DF]2 | %10
 [EG]4 ([FB]2 [FB]2) | [^EB]4 [FA]2 [E^G]2 | [FA]4 [GA]4 | [Ff]4 [Ae]2 [Ad]2 | [Fd]4 [Gc]2 [GB]2 | %15
 ([FA]2 [DF]2) [DF]2 [CE]2 | D4 |] %17
V:2
 x4 | x8 | x8 | x4 D2 x2 | x8 | x8 | x4 F2 x2 | x8 | F4 x4 | x8 | x8 | x8 | x8 | x8 | x8 | x8 | %16
 D4 |] %17
V:3
 [D,F,]4 | F,4 [E,G,]2 [D,F,]2 | [A,,A,]4 ([A,,A,]2 [A,,A,]2) | [G,A,]4 [F,A,]2 [E,A,]2 | %4
 [D,A,]4 (D,2 C,2) | [B,,B,]4 [B,,D]2 [B,,D]2 | [B,D]4 [D,B,]2 [D,B,]2 | [C,C]4 [C,C]2 [C,C]2 | %8
 [F,,A,]4 [B,,B,]4 | [B,,B,]4 [B,,B,]2 [B,,B,]2 | [E,B,]4 ([D,B,]2 [D,B,]2) | %11
 [C,C]4 [C,C]2 [C,C]2 | [F,C]4 [E,C]4 | [D,D]4 [F,D]2 [F,D]2 | [B,D]4 [G,D]2 [G,D]2 | %15
 [A,D]4 [A,,A,]2 [A,,G,]2 | [D,F,]4 |] %17
V:4
 x4 | F,4 x4 | x8 | x8 | x4 A,4 | x8 | x8 | x8 | x8 | x8 | x8 | x8 | x8 | x8 | x8 | x8 | x4 |] %17

